X:1
T: Miss Warrender of Lochend
C:
R:Strathspey
Q: 128
K:D
M:4/4
L:1/16
|:f2|d3D A3F Ee3 e3f|d3D A3F A3B d3A|B3d A3F Eg3 f3e|d3B A3F Dd3 d3f|
d3D A3F Ee3 e3f|d3D A3F A3B d3A|B3d A3F Eg3 f3e|d3B A3F Dd3 d2g2|
f3d a3f bg3 g3b|ad3 a3f ad3 a3f|gb3 fa3 e3d e3f|d3B A3F Ad3 d3g|
f3d a3f bg3 g3b|ad3 a3f ad3 a3f|gb3 fa3 e3d e3f|d3B A3F Dd3 d2:|
